symbols/web/menu_book/materialsymbolsoutlined/menu_book_gradN25fill1_40px.svg

<svg xmlns="http://www.w3.org/2000/svg" height="40" width="40"><path d="M23.292 16.167v-2.125q1.375-.584 2.833-.896 1.458-.313 3.042-.313 1.041 0 2.083.146 1.042.146 2.042.396v2q-1-.333-2-.5-1-.167-2.125-.167-1.584 0-3.063.375t-2.812 1.084Zm0 9.166v-2.125q1.375-.625 2.833-.937 1.458-.313 3.042-.313 1.041 0 2.083.167 1.042.167 2.042.417v2q-1-.334-2-.521-1-.188-2.125-.188-1.584 0-3.063.375t-2.812 1.125Zm0-4.583v-2.125q1.375-.583 2.833-.896 1.458-.312 3.042-.312 1.041 0 2.083.145 1.042.146 2.042.396v2q-1-.333-2-.52-1-.188-2.125-.188-1.584 0-3.063.396t-2.812 1.104Zm-1.917 8.375q2-.958 3.937-1.458 1.938-.5 4.105-.5 1.541 0 3.145.229 1.605.229 2.855.687v-17.25q-1.375-.666-2.917-.979-1.542-.312-3.083-.312-2.167 0-4.209.625-2.041.625-3.833 1.791Zm-1.333 3.958q-2.084-1.541-4.48-2.395-2.395-.855-4.979-.855-1.541 0-3.021.396-1.479.396-2.937.979-.958.417-1.813-.125-.854-.541-.854-1.583V10.375q0-.583.271-1.062.271-.48.813-.73 1.791-.833 3.687-1.271 1.896-.437 3.854-.437 2.542 0 4.959.687 2.416.688 4.5 2.063 2.125-1.375 4.5-2.063 2.375-.687 4.875-.687 1.958 0 3.854.437 1.896.438 3.646 1.271.541.25.833.73.292.479.292 1.062V29.5q0 1.083-.896 1.646-.896.562-1.771.062-1.458-.625-2.937-1-1.48-.375-3.021-.375-2.542 0-4.917.875t-4.458 2.375Z"/></svg>

<svg xmlns="http://www.w3.org/2000/svg" height="40" width="40"><path d="M23.292 16.167V14.042Q24.667 13.458 26.125 13.146Q27.583 12.833 29.167 12.833Q30.208 12.833 31.25 12.979Q32.292 13.125 33.292 13.375V15.375Q32.292 15.042 31.292 14.875Q30.292 14.708 29.167 14.708Q27.583 14.708 26.104 15.083Q24.625 15.458 23.292 16.167ZM23.292 25.333V23.208Q24.667 22.583 26.125 22.271Q27.583 21.958 29.167 21.958Q30.208 21.958 31.25 22.125Q32.292 22.292 33.292 22.542V24.542Q32.292 24.208 31.292 24.021Q30.292 23.833 29.167 23.833Q27.583 23.833 26.104 24.208Q24.625 24.583 23.292 25.333ZM23.292 20.75V18.625Q24.667 18.042 26.125 17.729Q27.583 17.417 29.167 17.417Q30.208 17.417 31.25 17.562Q32.292 17.708 33.292 17.958V19.958Q32.292 19.625 31.292 19.438Q30.292 19.25 29.167 19.25Q27.583 19.25 26.104 19.646Q24.625 20.042 23.292 20.75ZM21.375 29.125Q23.375 28.167 25.312 27.667Q27.25 27.167 29.417 27.167Q30.958 27.167 32.562 27.396Q34.167 27.625 35.417 28.083Q35.417 28.083 35.417 28.083Q35.417 28.083 35.417 28.083V10.833Q35.417 10.833 35.417 10.833Q35.417 10.833 35.417 10.833Q34.042 10.167 32.5 9.854Q30.958 9.542 29.417 9.542Q27.25 9.542 25.208 10.167Q23.167 10.792 21.375 11.958ZM20.042 33.083Q17.958 31.542 15.562 30.688Q13.167 29.833 10.583 29.833Q9.042 29.833 7.562 30.229Q6.083 30.625 4.625 31.208Q3.667 31.625 2.812 31.083Q1.958 30.542 1.958 29.5V10.375Q1.958 9.792 2.229 9.313Q2.5 8.833 3.042 8.583Q4.833 7.75 6.729 7.312Q8.625 6.875 10.583 6.875Q13.125 6.875 15.542 7.562Q17.958 8.25 20.042 9.625Q22.167 8.25 24.542 7.562Q26.917 6.875 29.417 6.875Q31.375 6.875 33.271 7.312Q35.167 7.75 36.917 8.583Q37.458 8.833 37.75 9.313Q38.042 9.792 38.042 10.375V29.5Q38.042 30.583 37.146 31.146Q36.25 31.708 35.375 31.208Q33.917 30.583 32.438 30.208Q30.958 29.833 29.417 29.833Q26.875 29.833 24.5 30.708Q22.125 31.583 20.042 33.083Z"/></svg>
